-----BEGIN PGP PUBLIC KEY BLOCK-----

mQENBFEhd7QBCACmZfgn3demo4su81XIAVUVGX7X9Ch6t2vWjMZHF7tVkK82xTba
4ya6So1bptYm7o3OWFIHiln5sYSZCLn/ArXAMCWoqgN5vJDZn+yYMxT7AB11wrfT
cnbkg5HgPD7SM8f2q/pN7B8W7gT90QCqYSalr2uLvEd5yyciQk+3LysXeghuT9zY
YNxB0yjKvLVGjnNIcMKeE/J2+zzprZqsBTzmgi5eoC7iLIaO2SRWza+/Q2/NYe5x
9yGr+ySycxtYrYw6huHkYIxg4ryfmj2c5WCYl926RIJ4vCFAlaBgH2tWHQWLmUL6
FU42GLdDUPunrIKmBXBu/vBE6uhpIOkZjXRZABEBAAG0KllpY2h1biBaaGFuZyAo
YWdlbnR6aCkgPGFnZW50emhAZ21haWwuY29tPokBOAQTAQIAIgUCUSF3tAIbAwYL
CQgHAwIGFQgCCQoLBBYCAwECHgECF4AACgkQtVDgnqDpgGYBDQf5Abc9p8R77VlA
BsCWDyiLDQFR9yIqZj3wmjj4GZYtC0PLj3rT6TzbAMExIdEsXD83+a4drLc/BVIF
RON6BvQOh6zihQAdHCUoBbA+WhWFUW5OoiF54a5hosb+HV/jkuBF9xsRJ6v0vje3
jdZEFLNBOkxnDiqMTGO4tSFerR+bkicF+hM7VvjFuaIj2qi7Z7WABVsMfVJF3K6T
9AxHY09mpSf+cGGt5J2O22DwL16R9zQO8h8jKsNenxdRHWWUgBNYtM19R2a6Yy1X
vma2c0fhtKOCsYGeGXFrw2Px+4DfCfMJMhJXyv0bAqhAkFnyBWv3sdtA+b7thaxj
DYXb9OmltLkBDQRRIXe0AQgA05JGEyzZtgyhZk7s3dl5GIjLqaOjdrk+pbD4Qhg7
Id1yBDs93Oe4NklRgLB/uwXReXWTm7IyQwyLWI1g/elQVk1cCivmHoD+5IzNeC/a
RdfWJUWYOC4AVWiHqByPXREGC97BxPmHR6xgug6ze4kGqLKsTikax21/w3U6Gs57
Z1Rsgi8xPvcvKOR2OHRoL2+5C5W23AFuOvnZxlBXO0aZw7FUJ4jlWOLtV2IldyCF
TKouHmJg+TsXfnBqfQzfAJ/MjHaqzjrpAo5uxaUdFD1/OooHy7RCF/1wRw6C9raL
zGkGLxKB+3hYjrBPOLyGpqjohNNG/9Dmh0HBPMCHDbnmyQARAQABiQEfBBgBAgAJ
BQJRIXe0AhsMAAoJELVQ4J6g6YBm0FsH/1NWqmSgx9fLdxdS/uVNN5gyiwockFjL
83Jvd8a6kyCOjxDJhCV4A8g3Klz3eIohB5+4dMwHdQz0dMbZFNXQrySNxWWuScO0
sP/+lDXc+px9UpLFpx4bM1uhSGOADjilLvWMySV9AFPc4eHqbHp9BwaWO8XArRgH
4eoKSjI89vzIKNHdXunv9e9NpIIyEAtlXZ5c9YGROCuw4oYqQizdeHI46si+7SiX
qstpNu1Cp7LVPOEQ2zEBTrz4sozW4jr6yRw7Y/8dir7EOc0v78K+9BbsvUJOK2Ec
EEp4Zya9YPWhVSQ4h5IECKyEwj4D5D4PZxvVyH2ghjMmT7z6AB2dkm4=
=6OnT
-----END PGP PUBLIC KEY BLOCK-----
